Newaita-dark/.DP/32/skype-status-connecting-0.svg

<svg xmlns="http://www.w3.org/2000/svg" xmlns:xlink="http://www.w3.org/1999/xlink" width="32px" height="32px" viewBox="0 0 32 32" version="1.1">
<g id="surface1">
<path style=" stroke:none;fill-rule:nonzero;fill:rgb(93.333334%,93.333334%,93.333334%);fill-opacity:1;" d="M 10.726562 4.199219 C 7.59375 4.199219 5.070312 6.722656 5.070312 9.855469 C 5.070312 10.804688 5.300781 11.695312 5.707031 12.480469 C 5.296875 13.621094 5.070312 14.855469 5.070312 16.140625 C 5.070312 22.058594 9.835938 26.824219 15.753906 26.824219 C 16.214844 26.824219 16.667969 26.796875 17.117188 26.738281 C 18.101562 27.578125 19.378906 28.082031 20.78125 28.082031 C 23.917969 28.082031 26.441406 25.558594 26.441406 22.425781 C 26.441406 21.480469 26.207031 20.585938 25.800781 19.804688 C 26.214844 18.660156 26.441406 17.429688 26.441406 16.140625 C 26.441406 10.222656 21.675781 5.457031 15.753906 5.457031 C 15.292969 5.457031 14.839844 5.488281 14.394531 5.542969 C 13.40625 4.703125 12.128906 4.199219 10.726562 4.199219 Z M 15.714844 10.542969 C 17.113281 10.542969 18.484375 11.101562 19.488281 12.128906 C 20.292969 13.191406 18.003906 14.519531 17.035156 13.546875 C 16.246094 13.089844 15.238281 13.058594 14.386719 13.550781 C 13.535156 14.039062 13.0625 14.925781 13.0625 15.839844 C 13.417969 17.164062 11.128906 18.488281 10.609375 17.257812 C 9.972656 14.984375 10.921875 12.496094 13.066406 11.257812 C 13.902344 10.773438 14.816406 10.542969 15.714844 10.542969 Z M 20.382812 14.507812 C 20.710938 14.503906 20.996094 14.652344 21.144531 14.996094 C 21.78125 17.269531 20.832031 19.757812 18.6875 20.996094 C 16.542969 22.234375 13.914062 21.808594 12.261719 20.121094 C 11.863281 19.589844 12.230469 18.996094 12.824219 18.652344 C 13.417969 18.308594 14.234375 18.222656 14.714844 18.707031 C 15.507812 19.164062 16.511719 19.195312 17.363281 18.707031 C 18.214844 18.214844 18.691406 17.324219 18.691406 16.410156 C 18.433594 15.460938 19.542969 14.511719 20.382812 14.507812 Z M 20.382812 14.507812 "/>
</g>
</svg>

<svg xmlns="http://www.w3.org/2000/svg" width="32pt" height="32pt" viewBox="0 0 32 32"><path d="M10.727 4.2A5.645 5.645 0 0 0 5.07 9.854c0 .95.23 1.84.64 2.625a10.713 10.713 0 0 0-.64 3.66 10.661 10.661 0 0 0 10.684 10.684c.46 0 .918-.027 1.363-.082a5.643 5.643 0 0 0 3.664 1.34 5.642 5.642 0 0 0 5.657-5.656c0-.95-.231-1.84-.637-2.621.414-1.14.637-2.375.637-3.664A10.661 10.661 0 0 0 15.754 5.457c-.461 0-.914.027-1.363.086a5.618 5.618 0 0 0-3.664-1.344zm4.984 6.343c1.402 0 2.773.559 3.777 1.59.805 1.062-1.484 2.383-2.453 1.414a2.65 2.65 0 0 0-3.973 2.293c.356 1.324-1.933 2.644-2.453 1.418a5.28 5.28 0 0 1 2.457-6 5.259 5.259 0 0 1 2.645-.715zm4.672 3.965c.328 0 .613.14.762.488a5.28 5.28 0 0 1-2.457 6 5.278 5.278 0 0 1-6.426-.875c-.403-.531-.028-1.129.562-1.469.594-.343 1.41-.43 1.89.055a2.64 2.64 0 0 0 2.65-.004 2.64 2.64 0 0 0 1.327-2.293c-.257-.95.856-1.898 1.692-1.902zm0 0" fill="#bdbdbd"/></svg>
